images/icon-clock.svg

<svg width="20" height="20" fill="none" xmlns="http://www.w3.org/2000/svg"><path d="M14.24 5.76A5.974 5.974 0 0010 4v6l-4.24 4.24c2.34 2.34 6.14 2.34 8.49 0a5.99 5.99 0 00-.01-8.48zM10 0C4.48 0 0 4.48 0 10s4.48 10 10 10 10-4.48 10-10S15.52 0 10 0zm0 18c-4.42 0-8-3.58-8-8s3.58-8 8-8 8 3.58 8 8-3.58 8-8 8z" fill="#26A37A"/></svg>

<svg width="20" height="20" viewBox="0 0 20 20" fill="none" xmlns="http://www.w3.org/2000/svg">
<path d="M14.24 5.76C13.07 4.59 11.54 4 10 4V10L5.76 14.24C8.1 16.58 11.9 16.58 14.25 14.24C16.59 11.9 16.59 8.1 14.24 5.76ZM10 0C4.48 0 0 4.48 0 10C0 15.52 4.48 20 10 20C15.52 20 20 15.52 20 10C20 4.48 15.52 0 10 0ZM10 18C5.58 18 2 14.42 2 10C2 5.58 5.58 2 10 2C14.42 2 18 5.58 18 10C18 14.42 14.42 18 10 18Z" fill="#26A37A"/>
</svg>
